_site/images/contact/request.svg

<svg fill="none" height="24" viewBox="0 0 21 24" width="21" xmlns="http://www.w3.org/2000/svg"><path clip-rule="evenodd" d="m4.02887 0h12.29083c2.2285 0 4.0289 1.80364 4.0289 4.02887v12.29083c0 2.2285-1.8037 4.0289-4.0289 4.0289h-10.94787l-3.84186 2.8814c-.633004.4746-1.52997.0171-1.52997-.765v-18.43613c0-2.22846 1.80364-4.02887 4.02887-4.02887zm12.29083 18.4361c1.1704 0 2.1164-.9465 2.1164-2.1164v-12.29083c0-1.17038-.9465-2.11641-2.1164-2.11641h-12.29083c-1.17038 0-2.11641.94652-2.11641 2.11641v16.52363l2.56689-1.9252c.1656-.124.3668-.1912.57374-.1912zm-6.1467-13.827c-1.94106 0-3.51561 1.57081-3.51561 3.51565v.00125c0 .52792.42806.95573.95623.95573s.95623-.42881.95623-.95698c0-.88402.71494-1.60318 1.60445-1.60318.8845 0 1.6042.71966 1.6042 1.60443 0 .88451-.7197 1.60418-1.6042 1.60418-.52819 0-.95625.42832-.95625.95622v1.0242c0 .5282.42806.9563.95625.9563.5279 0 .9562-.4281.9562-.9563v-.1999c1.4759-.4176 2.5604-1.77704 2.5604-3.3847 0-1.93936-1.5775-3.5169-3.5179-3.5169zm.9574 10.1742c0 .5281-.4281.9562-.9562.9562-.52796 0-.95627-.4281-.95627-.9562 0-.528.42831-.9563.95627-.9563.5281 0 .9562.4283.9562.9563z" fill="#ffc634" fill-rule="evenodd"/></svg>

<svg width="21" height="24" viewBox="0 0 21 24" fill="none" xmlns="http://www.w3.org/2000/svg">
<path fill-rule="evenodd" clip-rule="evenodd" d="M4.02887 0H16.3197C18.5482 0 20.3486 1.80364 20.3486 4.02887V16.3197C20.3486 18.5482 18.5449 20.3486 16.3197 20.3486H5.37183L1.52997 23.23C0.896966 23.7046 0 23.2471 0 22.465V4.02887C0 1.80041 1.80364 0 4.02887 0ZM16.3197 18.4361C17.4901 18.4361 18.4361 17.4896 18.4361 16.3197V4.02887C18.4361 2.85849 17.4896 1.91246 16.3197 1.91246H4.02887C2.85849 1.91246 1.91246 2.85898 1.91246 4.02887V20.5525L4.47935 18.6273C4.64495 18.5033 4.84615 18.4361 5.05309 18.4361H16.3197ZM10.173 4.6091C8.23194 4.6091 6.65739 6.17991 6.65739 8.12475V8.126C6.65739 8.65392 7.08545 9.08173 7.61362 9.08173C8.14179 9.08173 8.56985 8.65292 8.56985 8.12475C8.56985 7.24073 9.28479 6.52157 10.1743 6.52157C11.0588 6.52157 11.7785 7.24123 11.7785 8.126C11.7785 9.01051 11.0588 9.73018 10.1743 9.73018C9.64611 9.73018 9.21805 10.1585 9.21805 10.6864V11.7106C9.21805 12.2388 9.64611 12.6669 10.1743 12.6669C10.7022 12.6669 11.1305 12.2388 11.1305 11.7106V11.5107C12.6064 11.0931 13.6909 9.73366 13.6909 8.126C13.6909 6.18664 12.1134 4.6091 10.173 4.6091ZM11.1304 14.7833C11.1304 15.3114 10.7023 15.7395 10.1742 15.7395C9.64624 15.7395 9.21793 15.3114 9.21793 14.7833C9.21793 14.2553 9.64624 13.827 10.1742 13.827C10.7023 13.827 11.1304 14.2553 11.1304 14.7833Z" fill="#FFC634"/>
</svg>
